X:15543
T:Skrddare Polka
C:Herman Axelsson, Sm\aa{}land
M:2/4
L:1/16
K:C
ecGc E2Gc|BAFA D2DB|BAFA D2DB|cGEE C2C2|
ecGc E2Gc|BAFA D2DB|B2BA G2AB|1c2e2c4:|2 c2e2 c2EF||
|:G2GF E2Gc|e2ed c2c2|B2dc B2BA|Gced c2c2|
G2GF E2Gc|e2ed c2c2|d2fd B2e2|c2c2 c4:|
